!!!COM: Music21
!!!OTL: Pasodoble da Fonsagrada
!!!OMV: pezas_pasacorredoiras_pasacorredoiras-da-fonsagrada_pasodoble-da-fonsagrada-partitura.musicxml
**kern
*part1
*staff1
*I"Gaita
*I'Bag
*
*clefG^2
*k[]
*M2/4
=1
!LO:TX:a:t=Allegretto
*MM120
!LO:TX:a:t=[quarter]=120
4r
*
8eeL
.
8ffJ
.
=||
4.gg
.
.
.
8gg
=
4aa
.
4gg
.
.
.
=
8aa
[4.gg
.
.
.
=
4gg]
.
8eeL
.
8ffJ
.
=
4.gg
.
.
.
8gg
=
4aa
.
4gg
.
.
.
!!linebreak:original
=
[2ff
.
.
.
.
!!linebreak:original
=
4ff]
.
8ddL
.
8eeJ
.
=
4.ff
.
.
.
8ff
=
4gg
.
4ff
.
.
.
=
8gg
[4.ff
.
.
.
=
4ff]
.
8ddL
.
8eeJ
.
=
4.ff
.
.
.
8ff
=
4gg
.
4ff
.
.
.
!!pagebreak:original
=
[2ee
.
.
.
.
=
4ee]
8eeL
.
8ffJ
.
!!linebreak:original
=
4.gg
.
.
.
8gg
=
4aa
.
4gg
.
.
.
=
8aa
[4.gg
.
.
.
=
4gg]
.
8eeL
.
8ffJ
.
=
4.gg
.
.
.
8gg
=
4aa
.
4gg
.
.
.
!!linebreak:original
=
[2bb
.
.
.
.
=
4bb]
.
8ggL
.
8aaJ
.
=
4.bb
.
.
.
8ccc
!!pagebreak:original
=
4bb
.
4aa
.
.
.
=
8aa
[4.gg
.
.
.
=
8ggL]
8gg
8aa
.
8ggJ
.
=
[2ff
.
.
.
.
=
8ffL]
8ff
8gg
.
8ffJ
.
=
[2ee
.
.
.
.
=
8eeL]
8ee
8ff
.
8ggJ
.
!!linebreak:original
=
4aa
.
.
[4aa
.
=
8aaL]
8aa
8bb
.
8aaJ
.
!!linebreak:original
=
4gg
.
.
[4gg
.
=
8ggL]
8gg
8aa
.
8ggJ
.
=
4ff
.
.
8ddL
8eeJ
=
4ff
.
4aa
.
.
.
=
[2gg
.
.
.
.
.
=
8ggL]
8ee
8ff
.
8ggJ
.
!!linebreak:original
=
4aa
.
.
[4aa
.
=
8aaL]
8aa
8bb
.
8aaJ
.
=
4gg
.
.
[4gg
.
!!pagebreak:original
=
8ggL]
8gg
8aa
.
8ggJ
.
=
4.ff
.
.
.
8aa
=
4gg
.
4ff
.
.
.
=
4ee
16ggLL
16ff
16ee
16ddJJ
=
4.cc
.
.
.
8cc
=
4cc
8eeL
.
8ffJ
.
*
==
*-
!!!system-decoration: s1,s2,s3,s4
